X: 1
T: Old Joe
C: R-151
M: C|
Z: Transcribed from "Frets", with slight changes, by Debby Knight
R: reel
K: C
"C"[E3c3]d "C/E"cAGc|  "F"AGAB "F#dim7"cBcd| "C/G"eg2e "A7"ggag| "D7"ega_b "G7"aged|
"C"c2cd "C7"cAGc| "F"AGAB "F#dim7"cBcd| "G"ega_b "Am"agea| "G/B"gedB "C"c4 :|
|: \
"Am"A,4 C4| EA2_E DCA,G,| "Am"A,4 C4| "F7"_E3E DCA,G,|
"Am"A,2A,2 C4| EA2_E DCA,C| "C"c2cA "F"GcAG| "G"ECDB, "C"C4 :|
%as in Frets:
%"C"[E3c3]d "C/E"cAGc|  "F"AGAB "F#dim7"cBcd| "C/G"eg2e "A7"ggag| "D7"ega_b "G7"aged|
%"C"c2cd "C7"(3c/d/c/A Gc| "F"AGAB "F#dim7"cBcd| "G"ega_b "Am"agea| "G/B"gedB "C"c4 :|
%"Am"A,4 C4| JEA2_E DCA,G,| "Am"A,4 C4| "F7"_E3E DCA,G,|
%"Am"A,2A,2 C4| JEA2_E DCA,C| "C"G,2Jc2 "F"cG2E| "G"ECDB, "C"C4 :|
%%begintext ragged
%%3/27/02.  From the playing of Rodney Miller as transcribed in "Frets"
%%magazine with slight changes by Debby Knight
%%endtext
